Obsidian/places/16/mail-folder-outbox.svg

<svg viewBox="0 0 16 16" xmlns="http://www.w3.org/2000/svg"><path d="m8 2-3 3h2v2h2v-2h1 1zm-4.1171875 4-2.8828125 4.994141v.009765 1.992188 1.007812h3 11v-1-1.992187-.009766l-2.882812-4.9941405h-.117188-2v.9921875h1.539062l2.308594 4h-1.847656l-1 1h-6l-1-1h-1.8496094l2.3085938-4h1.5410156v-.9921875h-.9628906-1.1542969zm-1.8828125 1035.3613v1h5v2h2v-2-1z" fill="#f2f2f2"/></svg>

<svg xmlns="http://www.w3.org/2000/svg" viewBox="0 0 16 16">
  <defs id="defs3051">
    <style type="text/css" id="current-color-scheme">
      .ColorScheme-Text {
        color:#f2f2f2;
      }
      </style>
  </defs>
    <path 
        style="fill:currentColor;fill-opacity:1;stroke:none" 
        d="M 8 2 L 5 5 L 7 5 L 7 7 L 9 7 L 9 5 L 10 5 L 11 5 L 8 2 z M 3.8828125 6 L 1 10.994141 L 1 11.003906 L 1 12.996094 L 1 14.003906 L 4 14.003906 L 15 14.003906 L 15 13.003906 L 15 11.011719 L 15 11.001953 L 12.117188 6.0078125 L 12 6.0078125 L 10 6.0078125 L 10 7 L 11.539062 7 L 13.847656 11 L 12 11 L 11 12 L 5 12 L 4 11 L 2.1503906 11 L 4.4589844 7 L 6 7 L 6 6.0078125 L 5.0371094 6.0078125 L 3.8828125 6.0078125 L 3.8828125 6 z M 2 1041.3613 L 2 1042.3613 L 7 1042.3613 L 7 1044.3613 L 9 1044.3613 L 9 1042.3613 L 9 1041.3613 L 2 1041.3613 z " 
        class="ColorScheme-Text"/>
</svg>
